X: 884
T: Gönül Telim Titremiş
C: Erdinç Çelikkol
O: Turkey
F: http://compmusic.upf.edu/node/140
N: beyati--sarki--duyek--gonul_telim--erdinc_celikkol
N: makam= beyati
N: form= sarki
N: usul= duyek = 8/4
M: 8/4
L: 1/16
K: C _2/4B   
Q: 1/4=126
%%MIDI tuningsystem comma53
c2 d4 d2 d4 c4  | e2 d6 z2 c2 B2 c2  | \
w:  Gö nül  te lim  tit  |  re miş  SAZ  | 
B2 c4 c2 c4 d4  | B2 c6 z2 c2 d2 e2  | 
w:  ku lak  ve ren  var   |  mı  ki  SAZ  | 
f2 e4 d2 a2 g2 fe d2  | c2 d4 dc cB BA A4  | \
w:  ku lak  ve ren  *  var   |  mı  ki   SAZ  | 
c2 d4 d2 d4 c4  | 
w:  Gö nül  te lim  tit  | 
e2 d6 z2 c2 B2 c2  | B2 c4 c2 c4 d4  | \
w:  re miş  SAZ  |  ku lak  ve ren  var   | 
B2 c6 z2 c2 d2 e2  | f2 e4 d2 a2 g2 fe d2  | 
w:  mı  ki  SAZ  |  ku lak  ve ren  *  var   | 
c2 d4 dc zc de f4  | e4 a2 g2 f2 e2 .d4  | \
w:  mı  ki   SAZ  |  Her  çeh *  re  bi ze   | 
e2 g2 f4 z2 g2 f2 e2  | 
w:  bir  *  dost   | 
g4 f4 e2 d2 c2 B2  | d2 c6 z2 c2 d2 e2  | \
w:  her  sev gi li  yâr   |  mı  ki   | 
f4 e4 d2 c2 B2 c2  | B2 A4 dc zc de f4  | 
w:  her  sev gi li  yâr   |  mı  ki   SAZ  | 
e4 a2 g2 f2 e2 .d4  | e2 g2 f4 z2 g2 f2 e2  | \
w:  Her  çeh *  re  bi ze   |  bir  *  dost   | 
g4 f4 e2 d2 c2 B2  | d2 c6 z2 c2 d2 e2  | 
w:  her  sev gi li  yâr   |  mı  ki   | 
f4 e4 d2 c2 B2 c2  | B2 A4 Bc ze ^fg a4  | \
w:  her  sev gi li  yâr   |  mı  ki   SAZ  | 
g2 a4 g2 ^f2 g2 c'4  | 
w:  Ne dir  bu  te lâş   | 
b2 a6 z2 g2 ^f2 g2  | z2 g2 ^f2 g2 a4 g4  | \
w:  gö nül  SAZ  |  va ra ca ğın  yer   | 
^f2 e6 z2 e2 f2 a2  | z2 g2 ^f2 a2 g2 =f2 e2 d2  | 
w:  ne dir  SAZ  |  va ra ca ğın  *  yer   | 
c2 d4 ed ze ^fg a4  | g2 a4 g2 ^f2 g2 c'4  | \
w:  ne dir   SAZ  |  Ne dir  bu  te lâş   | 
b2 a6 z2 g2 ^f2 g2  | 
w:  gö nül  SAZ  | 
z2 g2 ^f2 g2 a4 g4  | ^f2 e6 z2 e2 f2 a2  | \
w:  va ra ca ğın  yer   |  ne dir  SAZ  | 
z2 g2 ^f2 a2 g2 =f2 e2 d2  | c2 d4 dc zc de f4  | 
w:  va ra ca ğın  *  yer   |  ne dir   SAZ  | 
z2 e4 a2 g2 f2 e2 d2  | z2 e4 g2 f4 f4  | \
w:  San ki  ah *  ret   |  pek  ge niş   | 
g4 f4 e2 d2 c2 B2  | d2 c6 z2 c2 d2 e2  | 
w:  dün ya  sa na  dar   |  mı  ki  SAZ  | 
f4 e4 d2 c2 B2 c2  | B2 A4 dc zc de f4  | \
w:  dün ya  sa na  dar   |  mı  ki   SAZ  | 
z2 e4 a2 g2 f2 e2 d2  | 
w:  San ki  ah *  ret   | 
z2 e4 g2 f4 f4  | g4 f4 e2 d2 c2 B2  | \
w:  pek  ge niş   |  dün ya  sa na  dar   | 
d2 c6 z2 c2 d2 e2  | f4 e4 d2 c2 B2 c2  | 
w:  mı  ki  SAZ  |  dün ya  sa na  dar   | 
B2 A4 dc cB BA A4  | |


